file/g2a.svg

<svg clip-rule="evenodd" fill-rule="evenodd" stroke-linejoin="round" stroke-miterlimit="1.41421" viewBox="0 0 560 400" xmlns="http://www.w3.org/2000/svg"><g fill-rule="nonzero" transform="matrix(1.06509 0 0 1.06509 66.9822 40.1863)"><path d="m179 140c-15.1 0-27.4 12.2-27.4 27.4v30.8h76.8l10.9-20.5h-66.2v-8.2c0-4.9 4-8.9 8.9-8.9h43.2c16.1 0 29.1-13 29.1-29.1s-13-29.1-29.1-29.1h-51.4c-11.3 0-20.5 9.2-20.5 20.5h70.4c4.7 0 8.5 3.6 8.7 8.3.1 4.7-3.6 8.6-8.3 8.8h-.2z" fill="#555e63"/><path d="m80.1 177.6c-15.1 0-27.3-12.2-27.3-27.3s12.2-27.3 27.3-27.3h55.4v-20.5h-56.7c-26.4 0-47.8 21.4-47.8 47.8s21.4 47.8 47.8 47.8h56.7v-58.1h-61.5v20.5h40.1v17.1z" fill="#f05f00"/><path d="m307.5 186.5h-3.3c-3.2 0-5.8 2.6-5.8 5.8s2.6 5.8 5.8 5.8h3.3c3.2 0 5.8-2.6 5.8-5.8s-2.6-5.8-5.8-5.8zm-.2 9.2h-3.1c-1.9 0-3.4-1.5-3.4-3.4s1.5-3.4 3.4-3.4h3.1c1.9 0 3.4 1.5 3.4 3.4s-1.5 3.4-3.4 3.4zm-17.2-9.2h6.7v2.4h-6.5c-1.9 0-3.4 1.5-3.4 3.4s1.5 3.4 3.4 3.4h6.5v2.4h-6.7c-3.2 0-5.8-2.6-5.8-5.8s2.6-5.8 5.8-5.8zm39.3 0 4.3 11.6h-2.7l-3.2-8.9-2.8 7.8h-2.6l-2.8-7.8-3.2 8.9h-2.7l4.3-11.6h3.2l2.5 7 2.5-7zm-46.6 10.1c0 .9-.7 1.6-1.6 1.6s-1.6-.7-1.6-1.6.7-1.6 1.6-1.6 1.6.7 1.6 1.6zm86.2 1.6h-24.5l-10.4-19.9h-27.3l-9.6-18.4h27.3l-17.7-34-37.8 72.3h-24.5s26.9-50.6 44.8-84.7c1.6-3.1 3.8-5.8 6.6-8 3.1-2.4 6.9-3.7 10.9-3.6 4 0 7.9 1.2 11.2 3.6 2.8 2.1 5 4.9 6.6 8 17.8 34.1 44.4 84.7 44.4 84.7z" fill="#0084c1"/></g></svg>

<?xml version="1.0" encoding="UTF-8" standalone="no"?>
<!DOCTYPE svg PUBLIC "-//W3C//DTD SVG 1.1//EN" "http://www.w3.org/Graphics/SVG/1.1/DTD/svg11.dtd">
<svg width="100%" height="100%" viewBox="0 0 560 400" version="1.1" xmlns="http://www.w3.org/2000/svg" xmlns:xlink="http://www.w3.org/1999/xlink" xml:space="preserve" xmlns:serif="http://www.serif.com/" style="fill-rule:evenodd;clip-rule:evenodd;stroke-linejoin:round;stroke-miterlimit:1.41421;">
    <g transform="matrix(1.06509,0,0,1.06509,66.9822,40.1863)">
        <path id="grey" d="M179,140C163.9,140 151.6,152.2 151.6,167.4L151.6,198.2L228.4,198.2L239.3,177.7L173.1,177.7L173.1,169.5C173.1,164.6 177.1,160.6 182,160.6L225.2,160.6C241.3,160.6 254.3,147.6 254.3,131.5C254.3,115.4 241.3,102.4 225.2,102.4L173.8,102.4C162.5,102.4 153.3,111.6 153.3,122.9L223.7,122.9C228.4,122.9 232.2,126.5 232.4,131.2C232.5,135.9 228.8,139.8 224.1,140L223.9,140L179,140Z" style="fill:rgb(85,94,99);fill-rule:nonzero;"/>
        <path id="orange" d="M80.1,177.6C65,177.6 52.8,165.4 52.8,150.3C52.8,135.2 65,123 80.1,123L135.5,123L135.5,102.5L78.8,102.5C52.4,102.5 31,123.9 31,150.3C31,176.7 52.4,198.1 78.8,198.1L135.5,198.1L135.5,140L74,140L74,160.5L114.1,160.5L114.1,177.6L80.1,177.6Z" style="fill:rgb(240,95,0);fill-rule:nonzero;"/>
        <path id="blue" d="M307.5,186.5L304.2,186.5C301,186.5 298.4,189.1 298.4,192.3C298.4,195.5 301,198.1 304.2,198.1L307.5,198.1C310.7,198.1 313.3,195.5 313.3,192.3C313.3,189.1 310.7,186.5 307.5,186.5ZM307.3,195.7L304.2,195.7C302.3,195.7 300.8,194.2 300.8,192.3C300.8,190.4 302.3,188.9 304.2,188.9L307.3,188.9C309.2,188.9 310.7,190.4 310.7,192.3C310.7,194.2 309.2,195.7 307.3,195.7ZM290.1,186.5L296.8,186.5L296.8,188.9L290.3,188.9C288.4,188.9 286.9,190.4 286.9,192.3C286.9,194.2 288.4,195.7 290.3,195.7L296.8,195.7L296.8,198.1L290.1,198.1C286.9,198.1 284.3,195.5 284.3,192.3C284.3,189.1 286.9,186.5 290.1,186.5ZM329.4,186.5L333.7,198.1L331,198.1L327.8,189.2L325,197L322.4,197L319.6,189.2L316.4,198.1L313.7,198.1L318,186.5L321.2,186.5L323.7,193.5L326.2,186.5L329.4,186.5ZM282.8,196.6C282.8,197.5 282.1,198.2 281.2,198.2C280.3,198.2 279.6,197.5 279.6,196.6C279.6,195.7 280.3,195 281.2,195C282.1,195 282.8,195.7 282.8,196.6ZM369,198.2L344.5,198.2L334.1,178.3L306.8,178.3L297.2,159.9L324.5,159.9L306.8,125.9L269,198.2L244.5,198.2C244.5,198.2 271.4,147.6 289.3,113.5C290.9,110.4 293.1,107.7 295.9,105.5C299,103.1 302.8,101.8 306.8,101.9C310.8,101.9 314.7,103.1 318,105.5C320.8,107.6 323,110.4 324.6,113.5C342.4,147.6 369,198.2 369,198.2Z" style="fill:rgb(0,132,193);fill-rule:nonzero;"/>
    </g>
</svg>
